X: 1
T: Elaine Mahoney's
M: 4/4
L: 1/8
R: reel
K: Ador
ed|:cA (3AAA eA (3AAA|cA (3AAA efge|
dB (3BBB GB (3BBB|dB (3BBB efge|
cA (3AAA eA(3AAA|cA (3AAA efge|
af (3gfe fded|1(3cBA Bc A2 ed:|2(3cBA Bc A2 gf||
|:ea ~a2 aged|^cdef gedg|
eg (3ggg gedB|GABd efgf|
ea (3aaa aged|^cdef ~g2 fg|
af (3gfe fded|1(3cBA Bc A2 gf:|2(3cBA Bc A2 ed||
